X: 1
T: Jem The Miller
M: 3/4
L: 1/8
R: waltz
K: Emin
B,2|.E2E-E2F|G2F2E2|.e2e2-ef|g2f2e2|d3ed2|d2B2G2|FE DE FG|A2G2F2|
.E2E-E2F|G2F2E2|e2e2-ef|g2gfga|b2g3e|d2B2A2|F2E3E|E4ef|
g3ab2|a3fd2|g3fe2|d3Bd2|efg2a2|f2d2B2|B3AG2|F3ED2|
E4e2|eB ef ga|b2g2e2|af de fa|g2agfe|d2B2A2|F2E3E|E4z2|
